X: 1
T: Eddie Duffy's
M: 4/4
L: 1/8
R: barndance
K: Gmaj
dc|BGDG B2B2|BAGB d2d2|efgd BdcB|AGFG ABcA|
BGDG B2B2|BAGB d2d2|efgd BdcB|ADFA G2:|
Bd|g2gd B2B2|BAGB d2d2|efgd BdcB|AGFG A2A2|
gagd B2B2|BAGB d2d2|efgd BdcB|ADFA G2||
Bd|g2gd B2B2|BAGB d2d2|efgd BdcB|AGFG ABcA|
BGDG B2B2|BAGB d2d2|efgd BdcB|ADFA G2||
